X: 19341
T: Jack Of All Trades
R: polka
M: 2/4
K: Amajor
e>d|:cA B/c/B/A/|EA A2|GA Bc|df ed|
cA B/c/B/A/|EA A2|Be dB|1 A2 e>d:|2 A2 B/c/d||
|:ea a=g|ef =g>a|=ge dB|GA EB|
cB/c/ dc/d/|ea fd|c/d/e dB|1 A2 c>d:|2 A2 e>d||

